X: 2224
T: Aveh, Ancient Dance
R: jig
M: 6/8
K: Cmajor
|:AzA GAD|AzA GAd|czc BcA|BGA DCD|AzA GAD|
[1 AzA GAd|czc Bcd|dec d3:|2 AzA GAc|dzd cde|dec d3||
|:fzf edc|eze dcB|czc BAG|Bzczdz|
fzf edc|eze dcB|czc Bcd|dec d3:|
|:cec dce|cdc Bcd|cec gce|dcB GAB|
cec dce|cdc Bcd|cec gce|dcB cz2:|

